X:12557
T:Paddy Canny's
R:reel
D:Sona: Launching the Boat
Z:Devin McCabe
M:C|
L:1/8
Q:180
K:GDor
G2cG dGcG|EFcF CFcF|G2cG dGcG|FG A/2=B/2c fdcA|
!G2cG dGcG|EFcF CFcF|DEFD GABd|cAfA ~B2AB|
!G2cG dGcG|EFcF CFcF|G2cG dGcG|efcA dAcA|
!G2cG dGcG|EFcF CFcF|DEFD GABd|cAfA ~B2AB|
!:Ggg^f gdBA|Ggge ~f2eg|f~B3 DBFB|f~B3 fdcA|
!Ggg^f gdBA|Ggga bage|~f3g afge|fdcA ~B2AB:|
